Catalina-light/actions/16/format-text-superscript.svg

<svg width="16" height="16" viewBox="0 0 16 16" xmlns="http://www.w3.org/2000/svg">
<defs>
<style id="current-color-scheme" type="text/css">.ColorScheme-Text { color:#5c616c; } .ColorScheme-Highlight { color:#5294e2; }</style>
</defs>
<path class="ColorScheme-Text" d="m11 0v6h3c1.108 0 2-0.892 2-2 0-0.8109-0.48088-1.5019-1.1719-1.8164 0.106-0.2059 0.17188-0.43529 0.17188-0.68359 0-0.831-0.669-1.5-1.5-1.5h-2.5zm-4 1-5 14h2.5l1.0625-3h4.875l1.0625 3h2.7812l-5.2812-14h-2zm5 0h1.5c0.277 0 0.5 0.223 0.5 0.5s-0.223 0.5-0.5 0.5h-1.5v-1zm0 2h2c0.554 0 1 0.446 1 1s-0.446 1-1 1h-2v-2zm-4 2 1.75 5h-3.5l1.75-5z" fill="#363636"/>
</svg>

<svg xmlns="http://www.w3.org/2000/svg" width="16" height="16" viewBox="0 0 16 16">
 <defs>
  <style id="current-color-scheme" type="text/css">
   .ColorScheme-Text { color:#5c616c; } .ColorScheme-Highlight { color:#5294e2; }
  </style>
 </defs>
 <path style="fill:currentColor" class="ColorScheme-Text" d="M 11 0 L 11 6 L 14 6 C 15.108 6 16 5.108 16 4 C 16 3.1891 15.519125 2.4980938 14.828125 2.1835938 C 14.934125 1.9776938 15 1.7483 15 1.5 C 15 0.669 14.331 0 13.5 0 L 11 0 z M 7 1 L 2 15 L 4.5 15 L 5.5625 12 L 10.4375 12 L 11.5 15 L 14.28125 15 L 9 1 L 7 1 z M 12 1 L 13.5 1 C 13.777 1 14 1.223 14 1.5 C 14 1.777 13.777 2 13.5 2 L 12 2 L 12 1 z M 12 3 L 14 3 C 14.554 3 15 3.446 15 4 C 15 4.554 14.554 5 14 5 L 12 5 L 12 3 z M 8 5 L 9.75 10 L 6.25 10 L 8 5 z"/>
</svg>
